X: 18844
T: Impish, The
R: hornpipe
M: 4/4
K: Amajor
(3e^d=d|:cAEA ceag|bafd F2 BA|GDEG Bdfe|dccd B2 (3e^d=d|
cAEA ceag|bafd d'c'ba|ge^de =dBGB|1 (3AGA cB A2 (3e^d=d:|2 (3AGA cB A2 GA||
|:BGDE GBdf|fee^d e2 (3e^d=d|cF^Ac e=gfe|eddc d2 dc|
Bd=fg bd'c'd'|A=c^df a^ab^b|c'aec dBGB|(3AGA cB A2 GF:|

